svg/rss.svg

<?xml version="1.0"?>
<svg class="icon icon-rss" xmlns="http://www.w3.org/2000/svg" width="32" height="32" viewBox="0 0 8 8">
  <path class="background"  d="M 1.5,0 C 0.669,0 0,0.669 0,1.5 l 0,5 C 0,7.331 0.669,8 1.5,8 l 5,0 C 7.331,8 8,7.331 8,6.5 l 0,-5 C 8,0.669 7.331,0 6.5,0 l -5,0 z M 1,1 A 6,6 0 0 1 7,7 L 6,7 A 5,5 0 0 0 1,2 L 1,1 z M 1,3 A 4,4 0 0 1 5,7 L 4,7 A 3,3 0 0 0 1,4 L 1,3 z M 2,5 C 2.5522847,5 3,5.4477153 3,6 3,6.5522847 2.5522847,7 2,7 1.4477153,7 1,6.5522847 1,6 1,5.4477153 1.4477153,5 2,5 z"/>
  <path class="foreground"  d="M 1,1 1,2 A 5,5 0 0 1 6,7 L 7,7 A 6,6 0 0 0 1,1 z M 1,3 1,4 A 3,3 0 0 1 4,7 L 5,7 A 4,4 0 0 0 1,3 z M 2,5 C 1.4477153,5 1,5.4477153 1,6 1,6.5522847 1.4477153,7 2,7 2.5522847,7 3,6.5522847 3,6 3,5.4477153 2.5522847,5 2,5 z"/>
</svg>

<svg class="icon icon-rss" xmlns="http://www.w3.org/2000/svg" width="32" height="32" viewBox="0 0 8 8"><path class="background" d="M1.5 0C.669 0 0 .669 0 1.5v5C0 7.331.669 8 1.5 8h5C7.331 8 8 7.331 8 6.5v-5C8 .669 7.331 0 6.5 0h-5zM1 1a6 6 0 0 1 6 6H6a5 5 0 0 0-5-5V1zm0 2a4 4 0 0 1 4 4H4a3 3 0 0 0-3-3V3zm1 2a1 1 0 1 1 0 2 1 1 0 0 1 0-2z"/><path class="foreground" d="M1 1v1a5 5 0 0 1 5 5h1a6 6 0 0 0-6-6zm0 2v1a3 3 0 0 1 3 3h1a4 4 0 0 0-4-4zm1 2a1 1 0 1 0 0 2 1 1 0 0 0 0-2z"/></svg>
